app/assets/images/payment_icons/billie.svg

<svg xmlns="http://www.w3.org/2000/svg" role="img" viewBox="0 0 38 24" width="38" height="24" aria-labelledby="pi-billie"> <title id="pi-billie">Billie</title> <path fill="#000" opacity=".07" d="M35 0H3C1.3 0 0 1.3 0 3v18c0 1.7 1.4 3 3 3h32c1.7 0 3-1.3 3-3V3c0-1.7-1.4-3-3-3z"/> <path fill="#fff" d="M35 1c1.1 0 2 .9 2 2v18c0 1.1-.9 2-2 2H3c-1.1 0-2-.9-2-2V3c0-1.1.9-2 2-2h32"/> <path fill="#090A0E" d="M20.2324 20.2261H13.0002V8.35981C13.0025 6.90395 13.6043 5.51351 14.6639 4.51553C15.7243 3.51269 17.1555 2.99874 18.6117 3.09779C21.3309 3.27085 23.5433 5.57294 23.5433 8.23385C23.5385 9.04419 23.4446 9.85192 23.2641 10.6421C24.6684 11.6285 25.5045 13.2372 25.5049 14.9536C25.5049 17.8608 23.1385 20.2261 20.2324 20.2261V20.2261ZM17.8601 18.0264H20.2324C21.9286 18.0271 23.3045 16.6528 23.3049 14.9562C23.3049 14.144 22.9838 13.3647 22.4112 12.7891C21.3653 14.7787 19.8762 16.4958 17.8601 18.0264V18.0264ZM15.1995 11.8808V17.2026C17.6257 15.6563 19.2913 13.953 20.4021 11.8853C20.3457 11.8823 20.29 11.8808 20.2324 11.8808H15.1995ZM15.1995 9.68111H20.2324C20.5561 9.68111 20.8794 9.71064 21.1979 9.76969C21.2917 9.26285 21.3403 8.74891 21.3437 8.23385C21.3437 6.71183 20.056 5.39315 18.4734 5.29298C16.7795 5.18234 15.3169 6.46589 15.2059 8.15984C15.2014 8.22637 15.1995 8.29328 15.1995 8.35981V9.68111V9.68111Z"/> </svg>

<svg xmlns="http://www.w3.org/2000/svg" width="38" height="24" fill="none" aria-labelledby="pi-billie" role="img" viewBox="0 0 38 24"><title id="pi-billie">Billie</title><path fill="#fff" d="M0 0h38v24H0z"/><path fill="#090A0E" d="M20.232 20.226H13V8.36a5.3 5.3 0 0 1 1.664-3.844 5.23 5.23 0 0 1 3.948-1.418c2.719.173 4.931 2.475 4.931 5.136-.005.81-.098 1.618-.279 2.408a5.27 5.27 0 0 1 2.24 4.312 5.28 5.28 0 0 1-5.272 5.272m-2.372-2.2h2.372a3.071 3.071 0 0 0 2.18-5.237c-1.047 1.99-2.536 3.707-4.552 5.237m-2.66-6.145v5.322c2.426-1.547 4.091-3.25 5.202-5.318a3 3 0 0 0-.17-.004zm0-2.2h5.032q.487 0 .966.089a9 9 0 0 0 .146-1.536c0-1.522-1.288-2.84-2.87-2.941A3.074 3.074 0 0 0 15.2 8.36z"/></svg>
